X:60
T:Jack Lattin. BC.60
T:Jacky Layton
M:C
L:1/8
Q:1/4=140
S:Benjamin Cooke MS.circa 1770, F.Kidson Coll.
R:.Country dance
O:England
A:Uncertain, probably northern
N:There is probably scope for repeating bar 5 as a bar 7.
Z:VMP.Jon Bagnall
K:G
G/A/B/c/ dg dBBg|dBBg d2 {c}B2|G/A/B/c/ dg dBBg|aAAB c2 BA|!
G/A/B/c/ dB c2 BA|G/A/B/c/ dB ecdB”^probably a bar missing”|cAAB c2 BA||!
gd B/c/d/B/ gd B/c/d/B/|gd B/c/d/B/ c2 BA|!
gd B/c/d/B/ gd B/c/d/B/|aAAB c2 BA|]

